X: 8437
T: Crabs In The Skillet
R: jig
M: 6/8
K: Aminor
|:A2 (3A/B/c/ e2^G|A2B c2d|~e3 dcB|edc BA^G|
A2 (3A/B/c/ e2^G|A2B c2e|dBd ~g3|1 dBG G^FG:|2 dBG G2 (3e/^f/g/||
|:aba ag^f|gag g^fe|de^f g^fe|dBA A2 (3e/^f/g/|
aba ag^f|gag g^fe|de^f gfg|1 dBG G2 (3e/^f/g/:|2 dBG G^FG||
|:A3 B3|c3 d3|efe dcB|edc BA^G|
A3 B3|c3 e3|dBd ~g3|1 dBG G^FG:|2 dBG G3||

